X:462
T:Reel 462
M:4/4
K:Amaj
L:1/8
CD|EA,CA, B,G,E,D|EA,A,C B,2CD|EA,B,A, B,G,E,G,|A,G,A,C B,2:|CD|EAAG E2ED|EAAB cABA|E^DEF GFGA|BABc dBAF|EAAG E2FA|G>A (3BAG AFEA|GABG AFFE|DB,G,B, D2|
